X:1
T:A Shropshire Lad
T:On the idle hill of Summer
T:A Shropshire Lad
T:6. On the idle hill of Summer
T:Arthur Somervell
T:A. E. Housman
T:Creative Commons copyright waiver (CC0 1.0 Universal)
T:Creative Commons copyright waiver (CC0 1.0 Universal)
T:Creative Commons copyright waiver (CC0 1.0 Universal)
T:Creative Commons copyright waiver (CC0 1.0 Universal)
C:Arthur Somervell
Z:A. E. Housman
Z:Creative Commons copyright waiver (CC0 1.0 Universal)
%%score 1 { ( 2 5 ) | ( 3 4 ) }
L:1/8
Q:1/4=92
M:3/4
K:B
V:1 treble nm="Voice"
V:2 treble nm="Piano"
V:5 treble 
V:3 bass 
V:4 bass 
V:1
"^Non troppo andante" z6 |"^text from https://www.lieder.net/lieder/get_text.html?TextId=8380" z6 | %2
w: ||
!pp! D3/2!<(! E/ F B A c | B F3!<)! d2- | d B!>(! G E D3/2 C/!>)! | F6 | C!<(! F F ^E F A | %7
w: On the i- dle hill of|Sum- mer, Sleep-|* y with the flow of|streams,|Far I hear the stea- dy|
 A G!<)! A c B D | F4 ^E2 | F6 | z6 |!pp! D3/2!<(! E/ F B A c!<)! | B2 F2 z2 | d B G E D C | F6 | %15
w: drum- mer, Drum- ming like a|noise in|dreams.||Far and near and low and|loud- er,|On the roads of earth go|by,|
!<(! C3/2 F/ F ^E F A | A G A c!<)! B D |!mf![Q:1/4=90] F4 ^E2 | F4 z2 | z6 | %20
w: Dear to friends and food for|pow- der, Sol- diers march- ing,|all to|die.||
!pp![Q:1/4=92] B3/2 A/ B G E G | A A3 z2 |!pp! G3/2 A/ B A B ^E | F6 |!p! B3/2 A/ B =G E G | %25
w: East and west, on fields for-|got- ten,|Bleach the bones of com- rades|slain,|Love- ly lads and dead and|
 =A A3!pp![Q:1/4=88] =D E | F3/2 F/ E3 =D | F6 |[Q:1/4=92] z6 | z6 | z6 |!ff! D3/2 E/ F B A c | %32
w: rot- ten; None that|go re- turn a-|gain.||||Far the cal- ling bu- gles|
 B F3 !>!d2- | d B G!>(! E D3/2 C/!>)! | F6 | E3/2!<(! G/ B F G B!<)! | %36
w: hol- lo, High|_ the scream- ing fife re-|plies,|Gay the files of scar- let|
"^rall."[Q:1/4=88] (d3 c) B2 |[Q:1/4=84] e3/2 G/ G B[Q:1/4=40] !fermata!c3/2 F/ |[Q:1/4=92] B4 z2 | %39
w: fol- * low:|Wo- man bore me, I will|rise.|
 z6 | z6 | z6 | z6 | z6 | z6 | z6 | z6 |] %47
w: ||||||||
V:2
 z6 | z6 |[K:bass]!p! [D,F,B,]4 [E,A,C]2 |[K:treble]!<(! ([B,D]>[CE][DF]B)!<)! (D^E | %4
 [B,DF]2)!>(! [B,=EG]2 [A,F]2!>)! |[K:bass]!<(! (C>D B,CD^E!<)! | %6
!mp! [F,CF]2)!<(! [G,B,C]2 (CF)!<)! |[K:treble] (AG!>(! [A,F]2) [B,DG]2!>)! | %8
!<(! ([A,C]>[B,D][A,C]F) (^EG)!<)! |!<(! ([A,F]>[B,G] AcBd)!<)! |!>(! c>G ([DFB]2 [CEA]2)!>)! | %11
!pp! [B,DB]2[K:bass] [D,B,]2!<(! [E,C]2 |[K:treble] ([B,D]>[CE][DF]B)!<)! (D^E | %13
 [B,DF]2) [B,=EG]2 [A,F]2 |[K:bass] (C>D B,CD^E) |!<(! [F,CF]2 [G,B,C]2 (CF) | %16
[K:treble] AG [A,F]2!<)!!>(! [B,DG]2!>)! |!<(! ([A,C]>[B,D][A,C]F!<)!!>(! ^EG)!>)! | %18
!<(! ([A,F]>[B,G] AcBd)!<)! |!>(! c>G ([DFB]2 [CEA]2)!>)! |!pp! [B,EB]4 [B,EB]2 | %21
 [A,EA]2 [DAd]2 [A,DA]2 |!pp! [G,G]2 [F,F]2 ([F,F][^E,^E]) | (F>!<(!C) ([A,C][B,=D][CE]A)!<)! | %24
!p! [B,EB]4 [B,EB]2 | [=A,E=A]2 [=DA=d]2!pp! [=G,=G]2 | [F,F]2 [E,E]2[K:bass] z [^E,G,B,=D] | %27
!p!!<(! F6 | F6 | ([F,A,]>[G,B,]) ([A,C]E)([B,D]F)!<)! | %30
[K:treble]!f!!<(! ([G,B,E]G)([A,EF]A) ([B,B][Cc])!<)! |!ff! [DFBd]2{/^E} F z [=EAc]2 | %32
 ([DBd]>[Ece] [df]b) (d^e) | [Bdf]2!>(! [B,EG]2 [A,F]2!>)! | %34
!<(![I:staff +1] [E,A,C]>D [D,B,][E,C][F,B,D][B,DF]!<)! | %35
[I:staff -1] [B,EB]2!<(! [=A,D=A]2 [G,EG]2!<)! | ([G,G]2"_rall." [^^F,^^F]2) [G,B,DG]2 | %37
 [B,EGB]2 [B,EG]2 !fermata![A,EF]2 |!ff! !>![DFB]>c !>![DFBd]2 (3!tenuto!c!tenuto!B!tenuto!A | %39
!>(! [B,DFB]>D [G,B,E]>F [^B,DG]>B,!>)! |!f! (3[E,G,C]!<(!DE [F,B,F]2 [F,A,CF]2!<)! | %41
!fff! [Bdfb]>[cc'] [dfbd']2 (3!tenuto![c=gc']!tenuto![Bb]!tenuto![Aa] | %42
!>(! [Bdfb]>[Dd] [EGBe]>[Ff] [G^Bdg]>[^B,B] | (3[CEGc][Dd][Ee] [FBdf]2 [A,EFA]2!>)! | %44
!ff! [B,DFB]>!mf!!<(![Cc] [DFBd]2 [A,EF]2!<)! |[K:bass]!f! [B,,D,F,B,]>!mf![C,C] [D,D]2!fff! F,2 | %46
 B,,2[K:treble] !fermata![Bdfb]4 |] %47
V:3
"_senza  î™"!pp!{/^E,} F, z z2{/E,} F, z |{/^E,} F, z z2{/E,} F, z | %2
!ped! z2{/^E,} .F, z z2!ped-up! | [B,,,B,,]2{/^E,} F, z D,^E, | [F,,F,]2{/^E,} F, z [F,,=E,]2 | %5
 [B,,,B,,]2{/^E,} .F, z z2 | [A,,,A,,]2 [G,,,G,,]2 [F,,,F,,]2 | C,4 [B,,,B,,]2 | [C,,C,]6 | %9
 [F,,C,]2{/^E,} F, z [D,,D,]2 | [E,,E,]2 [F,,F,]2 [F,,,F,,]2 |!ped! z2{/^E,} .F, z z2!ped-up! | %12
 [B,,,B,,]2{/^E,} F, z D,^E, | [F,,F,]2{/^E,} .F, z [F,,=E,]2 | [B,,,B,,]2{/^E,} .F, z [B,,,B,,]2 | %15
 [A,,,A,,]2 [G,,,G,,]2 [F,,,F,,]2 | C,4 [B,,,B,,]2 | [C,,C,]6 | [F,,C,]2{/^E,} F, z [D,,D,]2 | %19
 [E,,E,]2 [F,,F,]2 [F,,,F,,]2 | G,2 [F,,,F,,]2 G,2 | F,2 [F,,,F,,]2 F,2 | E,2 D,2 C,2 | %23
 [F,,C,]2 [F,,,F,,]2 z2 | =G,2 [F,,,F,,]2 G,2 | F,2 [F,,,F,,]2 E,2 | =D,2 C,2 B,,2 | %27
 (C,>=D, E,2) D,2 | (C,>=D, E,2) D,2 | C,>^D, E,2 F,2 | [F,,,F,,]2 [F,,F,]2 [G,,G,][A,,A,] | %31
 [B,,B,]2{/^E,} F, z [F,,F,]2 | [B,,,B,,]2 [B,DF]2 ([B,D]^E) | [F,B,DF]2 z2 [F,,E,]2 | %34
 [B,,,B,,]4 [=A,,,=A,,]2 | [G,,B,,G,]2 [F,,B,,F,]2 [E,,E,]2 | [D,,D,]4 [G,,D,]2 | %37
 [C,,C,]2 [C,E,G,]2 !fermata![F,,F,]2 | %38
!ped! [B,,F,B,]2 [B,,,B,,]2 (3!tenuto!C!tenuto!B,!tenuto!A,!ped-up! | [F,,F,]2 [E,,E,]2 [D,,D,]2 | %40
 [E,,E,]2 [F,,D,]2 [F,,E,]2 | [F,B,D]2 [B,,,B,,]2 (3!tenuto!C!tenuto!B,!tenuto!A, | %42
 [F,B,D]2 [E,G,B,]2 [D,G,^B,]2 | [C,E,G,]2 [F,B,D]2 [F,,F,]2 | [B,,D,F,]2 [B,,,B,,]2 [F,,,F,,]2 | %45
 [B,,,F,,]4 [F,,,F,,]2 |!8vb(!!ped! B,,,,2!8vb)!!mf! [F,B,DF]4!ped-up! |] %47
V:4
 x6 | x6 | [B,,,B,,]6 | x4 [G,,B,,]2 | x6 | x6 | x6 | ^E,,2 F,,2 x2 | x6 | x6 | x6 | [B,,,B,,]6 | %12
 x4 [G,,B,,]2 | x6 | x6 | x6 | (^E,,2 F,,2) x2 | x6 | x6 | x6 | x6 | x6 | x6 | x6 | x6 | x6 | x6 | %27
 F,,4 B,,2 | F,,4 B,,2 | F,,6 | x6 | x6 | x4 G,2 | x6 | x6 | x6 | x6 | x6 | x4 =G,2 | x6 | x6 | %41
 x4 [E,=G,]2 | x6 | x6 | x6 | x6 |!8vb(! x2!8vb)! x4 |] %47
V:5
 x6 | x6 |[K:bass] x6 |[K:treble] x4 B,2 | x6 |[K:bass] E,2 D,E, [F,B,]2 | x4 A,2 | %7
[K:treble] [B,C]2 x4 | x4 [B,C]2 | x2 [CF]2 F2 | [EG]2 x4 | x2[K:bass] x4 |[K:treble] x4 B,2 | x6 | %14
[K:bass] [E,A,]2 D,E, [F,B,]2 | x4 A,2 |[K:treble] [B,C]2 x4 | x4 [B,C]2 | x2 [CF]2 F2 | [EG]2 x4 | %20
 x6 | x6 | (DC) (CB,) [B,C]2 | [F,A,]2 x4 | x6 | x4 (=DC) | CB, B,A,[K:bass] x2 | %27
 ([F,A,]>[G,B,] [A,C]2) [F,G,B,=D]2 | ([F,A,]>[G,B,] [A,C]2) [F,G,B,=D]2 | x6 | %30
[K:treble] x4 [EF]2 | x6 | x4 B2 | x6 | x6 | x6 | [CD]4 x2 | x6 | x4 [E=G]2 | x6 | x6 | x6 | x6 | %43
 x6 | x6 |[K:bass] x6 | x2[K:treble] x4 |] %47

